!!!COM: Joplin, Scott
!!!CDT: 1868/11/24/-1917/04/01/
!!!OTL: The Cascades
!!!ONB: A Rag
!!!ODT: 1904///
!!!PPR: John Stark & Son
!!!PPP: St. Louis, Missouri
!!!PDT: 1904///
!!!ENC: Craig Stuart Sapp
!!!END: 2004/06/09/
!!!YEC: Copyright 2004 by Craig Stuart Sapp
!!!YEN: United States of America
**kern	**kern	**dynam
*staff2	*staff1	*staff1
*Ipiano	*Ipiano	*Ipiano
*>[I,A,A1,A,A2,B,B1,B,B2,C,D,D1,D,D2,E,E1,E,E2]	*>[I,A,A1,A,A2,B,B1,B,B2,C,D,D1,D,D2,E,E1,E,E2]	*>[I,A,A1,A,A2,B,B1,B,B2,C,D,D1,D,D2,E,E1,E,E2]
*>norep[I,A,A2,B,B2,C,D,D2,E,E2]	*>norep[I,A,A2,B,B2,C,D,D2,E,E2]	*>norep[I,A,A2,B,B2,C,D,D2,E,E2]
*>I	*>I	*>I
=1-	=1-	=1-
*clefF4	*clefG2	*clefG2
*k[]	*k[]	*k[]
*M2/4	*M2/4	*M2/4
*MM100	*MM100	*MM100
8GG 8G	8g	mf
4GG 4G	4g	.
8AA 8A	8a	.
=2	=2	=2
8BB 8B	8b	.
4BB 4B	4b	.
8F 8f	8ff	.
=3	=3	=3
4E 4e	4ee	.
4D 4d	4dd	.
=4	=4	=4
8GG 8G	8g 8b 8gg	.
8r	(16f#LL	.
.	16gJJ	.
4r	16aLL	.
.	16b	.
.	16cc	.
.	16ddJJ)	.
=5!|:	=5!|:	=5!|:
*>A	*>A	*>A
8C 8cL	(16eeLL	mf
.	16dd#	.
8G 8c 8eJ	16ee	.
.	16ffJJ	.
8E 8eL	16ggLL	.
.	16aa	.
8E- 8e-J	16ccc	.
.	16aaJJ)	.
=6	=6	=6
8D 8dL	(16bbLL	.
.	16ccc	.
8G 8B 8fJ	16ddd	.
.	16ffJJ	.
8GG 8GL	16aaLL	.
.	16gg	.
8G 8B 8fJ	16dd	.
.	16dd#JJ)	.
=7	=7	=7
8C 8cL	(16eeLL	.
.	16dd#	.
8G 8c 8eJ	16ee	.
.	16ffJJ	.
8E 8eL	16ggLL	.
.	16aa	.
8E- 8e-J	16ccc	.
.	16aaJJ)	.
=8	=8	=8
8D 8dL	(16bbLL	.
.	16ccc	.
8G 8B 8fJ	16ddd	.
.	16ffJJ	.
8GG 8GL	16aaLL	.
.	16gg	.
8G 8B 8fJ	16dd	.
.	16eeJJ)	.
=9	=9	=9
(16G#LL	(16ffLL	.
16B	16dd	.
16d	16b	.
16fJJ	16g#JJ	.
8c 8e)	8a)	.
8r	8r	.
=10	=10	=10
(16G#LL	(16ffLL	.
16B	16dd	.
16d	16b	.
16fJJ	16g#JJ	.
8c 8e)	8a)	.
8r	8r	.
=11	=11	=11
*^	*	*
16AALL	16CCLL	2r	.
16C	16DD#	.	.
16D#	16FF#	.	.
16F#JJ	16AAJJ	.	.
16ALL	16CLL	.	.
16c	16D#	.	.
16d#	16F#	.	.
16f#JJ	16AJJ	.	.
*v	*v	*	*
=12	=12	=12
*	*^	*
2r	16aLL	16cLL	.
.	16cc	16d#	.
.	16dd#	16f#	.
.	16ff#JJ	16aJJ	.
.	16aaLL	16ccLL	.
.	16ccc	16dd#	.
.	16ddd#	16ff#	.
.	16fff#JJ	16aaJJ	.
=13	=13	=13	=13
2r	8ccc 8eee- 8aaa-L	8aa-L	.
.	16ccc 16eee- 16fff#L	8ee-	.
.	[16ccc [16eee- [16fff#JJ	.	.
.	16ccc] 16eee-] 16fff#LL]	8cc	.
.	16ccc 16eee- 16fff#J	.	.
.	8ccc 8eee- 8fff#J	8a-J	.
*	*v	*v	*
=14	=14	=14
*	*^	*
*	*	*^	*
2r	4ccc 4eeen 4ggg	8gL	4g	.
*	*	*v	*v	*
.	.	8cc 8eenJ	.
*	*	*^	*
.	(16gggLL	8eL	4e	.
*	*	*v	*v	*
.	16eee	.	.
.	16ccc	8g 8cc 8eeJ	.
.	16ggJJ)	.	.
=15	=15	=15	=15
2r	4cc 4ff# 4aa	(8dL	.
.	.	8aJ)	.
.	16ffn 16dddLK	4g 4b	.
.	8ff 8ddd	.	.
.	16ff 16ggJk	.	.
=16	=16	=16	=16
2r	8ee 8ccc	8c 8g 8cc	.
.	(16ccLL	8r	.
.	16ddJJ	.	.
.	16eeLL	4r	.
.	16ff	.	.
.	16ff#	.	.
.	16ggJJ)	.	.
*	*v	*v	*
=17	=17	=17
8a-L	8cc 8ee- 8aa-L	.
8e-	16cc 16ee- 16ff#L	.
.	[16cc [16ee- [16ff#JJ	.
8c	16cc] 16ee-] 16ff#LL]	.
.	16cc 16ee- 16ff#J	.
8A-J	8cc 8ee- 8ff#J	.
=18	=18	=18
*^	*	*
8GL	4G	4cc 4een 4gg	.
8c 8enJ	.	.	.
8EL	4E	(16ggLL	.
.	.	16ee	.
8G 8c 8eJ	.	16cc	.
.	.	16gJJ)	.
*v	*v	*	*
=19	=19	=19
(8DL	4c 4f# 4a	.
8AJ)	.	.
4G 4B	16fn 16ddLK	.
.	8f 8dd	.
.	16f 16gJk	.
=20	=20	=20
*>A1	*>A1	*>A1
8C 8G 8c	8e 8cc	.
8r	(16f#LL	.
.	16gJJ	.
4r	16aLL	.
.	16b	.
.	16cc	.
.	16ddJJ)	.
=21!|:	=21!|:	=21!|:
*>A2	*>A2	*>A2
8C 8G 8c	8e 8cc	.
8r	16ggLL	.
.	16ggJJ	.
8r	8ggL	.
8C# 8c#	8ggJ	.
=22!|:	=22!|:	=22!|:
*>B	*>B	*>B
8D 8dL	16gg 16bb (16gggLL	mf
.	16fff	.
8G 8B 8fJ	16ddd	.
.	16bbJJ	.
8GG 8GL	16ggLL	.
.	16ff	.
8G 8B 8fJ	16dd	.
.	16bJJ)	.
=23	=23	=23
8C 8cL	8cc 8eeL	.
8G 8c 8eJ	16a 16cc 16eeL	.
.	[16g [16cc [16eeJJ	.
8GG 8GL	16g] 16cc] 16eeLL]	.
.	16a 16cc 16eeJ	.
8G 8c 8eJ	8g 8cc 8eeJ	.
=24	=24	=24
8D 8dL	8b 8ffL	.
8G 8B 8fJ	16a 16b 16ffL	.
.	[16g [16b [16ffJJ	.
8GG 8GL	16g] 16b] 16ffLL]	.
.	16a 16ffJ	.
8G 8B 8fJ	8g 8ffJ	.
=25	=25	=25
8C 8cL	8cc 8eeL	.
8G 8c 8eJ	16a 16cc 16eeL	.
.	[16g [16cc [16eeJJ	.
8GG 8GL	16g] 16cc] 16eeLL]	.
.	16gg	.
8G 8c 8eJ	16ccc	.
.	16eeeJJ	.
=26	=26	=26
8D 8dL	16gg 16bb (16gggLL	.
.	16fff	.
8G 8B 8fJ	16ddd	.
.	16bbJJ	.
8GG 8GL	16ggLL	.
.	16ff	.
8G 8B 8fJ	16dd	.
.	16bJJ)	.
=27	=27	=27
8C 8cL	8cc 8eeL	.
8G 8c 8eJ	16a 16cc 16eeL	.
.	[16g [16cc [16eeJJ	.
8EE 8EL	16g] 16cc] 16eeLL]	.
.	16gJ	.
8CC# 8C#J	8g 8a# 8eeJ	.
=28	=28	=28
8DD 8DL	8g 8b 8eeL	.
8D 8GJ	16g 16b 16ddL	.
.	[16g [16bJJ	.
8DD 8DL	16g] 16bLL]	.
.	16B 16gJ	.
8D 8F#J	8c 8aJ	.
=29	=29	=29
*	*^	*
8GG 8D 8G	8B	16B 16gLL	.
.	.	16g	.
8r	8r	16b	.
.	.	16ddJJ	.
8G 8B 8d	16ggLL	4r	.
.	16gg	.	.
8r	16bb	.	.
.	16dddJJ	.	.
*	*v	*v	*
=30	=30	=30
8D 8dL	16gg 16bb (16gggLL	.
.	16fff	.
8G 8B 8fJ	16ddd	.
.	16bbJJ	.
8GG 8GL	16ggLL	.
.	16ff	.
8G 8B 8fJ	16dd	.
.	16bJJ)	.
=31	=31	=31
8C 8cL	8cc 8eeL	.
8G 8c 8eJ	16a 16cc 16eeL	.
.	[16g [16cc [16eeJJ	.
8GG 8GL	16g] 16cc] 16eeLL]	.
.	16a 16cc 16eeJ	.
8G 8c 8eJ	8g 8cc 8eeJ	.
=32	=32	=32
8D 8dL	8b 8ffL	.
8G 8B 8fJ	16a 16b 16ffL	.
.	[16g [16b [16ffJJ	.
8GG 8GL	16g] 16b] 16ffLL]	.
.	16a 16ffJ	.
8G 8B 8fJ	8g 8ffJ	.
=33	=33	=33
8C 8cL	8cc 8eeL	.
8G 8c 8eJ	16a 16cc 16ffL	.
.	[16g [16cc [16eeJJ	.
8G 8c 8eL	8g] 8cc] 8eeL]	.
8GG 8GJ	8b 8dd 8ggJ	.
=34	=34	=34
*^	*	*
4c	8C 8cL	16ccLL	.
.	.	16ee	.
.	8G 8c 8eJ	16gg	.
.	.	16cccJJ	.
4B-	8BB- 8B-L	16ccLL	.
.	.	16ee	.
.	8G 8c 8eJ	16gg	.
.	.	16cccJJ	.
=35	=35	=35	=35
4A	8AA 8AL	16ccLL	.
.	.	16ff	.
.	8A 8c 8fJ	16ccc	.
.	.	16ffJJ	.
4A-	8AA- 8A-L	16ccLK	.
.	.	8ccc	.
.	8A- 8c 8d#J	.	.
.	.	16ff#Jk	.
*v	*v	*	*
=36	=36	=36
8GG 8GL	16ggLL	.
.	16g	.
8G 8c 8eJ	16ee	.
.	16ddJJ	.
8AA 8AL	8f# 8ccL	.
8GG 8GJ	8fn 8b 8ddJ	.
=37	=37	=37
*>B1	*>B1	*>B1
8C 8c	8e 8cc	.
8r	16ggLL	.
.	16ggJJ	.
8r	8ggL	.
8C# 8c#	8ggJ	.
=38:|!	=38:|!	=38:|!
*>B2	*>B2	*>B2
8C 8cL	4e 4cc	.
8GG 8GJ	.	.
8CC 8C	8cc 8ee 8ccc	.
8r	8r	.
=39	=39	=39
*>C	*>C	*>C
*	*^	*
2r	8b' 8dd' 8ff'	8g	.
.	4b 4dd 4ff	4g	.
.	8b 8dd 8ff	8g	.
=40	=40	=40	=40
2r	8b- 8dd 8ff	8a-	.
.	4b- 4dd 4ff	4a-	.
.	8b- 8dd 8ff	8a-	.
=41	=41	=41	=41
2r	4b- 4ee-	4g	.
.	4b- 4cc 4een	4g-	.
=42	=42	=42	=42
4r	8a 8cc 8ff	8f	.
.	4.ryy	8r	.
4FF 4F	.	4f 4a 4ee- 4ff	.
*	*v	*v	*
=43!|:	=43!|:	=43!|:
*>D	*>D	*>D
*k[b-e-]	*k[b-e-]	*k[b-e-]
16D 16dLL	[4f [4b- [4dd [4ff	mf
16BB- 16B-	.	.
16AA 16A	.	.
16GG 16GJJ	.	.
16FF 16FLL	16f] 16b-] 16dd] 16ffLL]	.
16BB- 16B-	16d 16dd	.
16C 16c	16e- 16ee-	.
16C# 16c#JJ	16en 16eenJJ	.
=44	=44	=44
8D 8dL	16f 16ffLL	.
.	16b- 16dd	.
8C 8cJ	16e- 16a 16ee-	.
.	[16d [16b- [16ddJJ	.
8BB- 8B-L	16d] 16b-] 16ddLL]	.
.	16dd	.
8F 8B- 8dJ	16ff	.
.	16aa-JJ	.
=45	=45	=45
8EE- 8E-L	16r	.
.	16ee- 16ggLL	.
8G 8B- 8e-J	16b- 16bb-	.
.	16ee- 16ggJJ	.
8EE- 8E-L	16cc 16cccLK	.
.	8b- 8bb-	.
8CC# 8C#J	.	.
.	[16f [16b- [16dd [16ffJk	.
=46	=46	=46
8DD 8DL	4f_ 4b-] 4dd] 4ff_	.
16FF 16FL	.	.
16BB- 16B-JJ	.	.
8C 8cL	16f] 16ffLL]	.
.	16a	.
8E- 8e-J	16cc	.
.	16ffJJ	.
=47	=47	=47
16D 16dLL	[4f [4b- [4dd [4ff	.
16BB- 16B-	.	.
16AA 16A	.	.
16GG 16GJJ	.	.
16FF 16FLL	16f] 16b-] 16dd] 16ffLL]	.
16DD 16D	16B- 16b-	.
16EE- 16E-	16c 16cc	.
16EEn 16EnJJ	16c# 16cc#JJ	.
=48	=48	=48
8FF 8FL	16d 16ddLL	.
.	16b-	.
16FF# 16F#L	16c 16e- 16cc	.
[16GG [16GJJ	[16B- [16d [16b-JJ	.
16GG] 16GLL]	16B-] 16d] 16b-LL]	.
16BB- 16B-	16gJ	.
16D 16d	8fn 8b-J	.
16D- 16d-JJ	.	.
=49	=49	=49
8C 8cL	16f 16aLL	.
.	16ff	.
8A 8cJ	16f 16a 16cc	.
.	[16en [16b- [16ddJJ	.
8CL	16e] 16b-] 16ddLL]	.
.	16b-J	.
8B- 8cJ	8gJ	.
=50	=50	=50
8F 8A 8cL	8fL	.
8AA 8AJ	16ccL	.
.	[16ffJJ	.
8C 8cL	16ffLL]	.
.	16a	.
8E- 8e-J	16cc	.
.	16ffJJ	.
=51	=51	=51
16D 16dLL	[4f [4b- [4dd [4ff	.
16BB- 16B-	.	.
16AA 16A	.	.
16GG 16GJJ	.	.
16FF 16FLL	16f] 16b-] 16dd] 16ffLL]	.
16BB- 16B-	16d 16dd	.
16C 16c	16e- 16ee-	.
16C# 16c#JJ	16en 16eenJJ	.
=52	=52	=52
8D 8dL	16f 16ffLL	.
.	16b- 16dd	.
8C 8cJ	16e- 16a 16ee-	.
.	[16d [16b- [16ddJJ	.
8BB- 8B-L	16d] 16b-] 16ddLL]	.
.	16dd	.
8F 8B- 8dJ	16ff	.
.	16aa-JJ	.
=53	=53	=53
8EE- 8E-L	16r	.
.	16ee- 16ggLL	.
8G 8B- 8e-J	16b- 16bb-	.
.	16ee- 16ggJJ	.
8EE- 8E-L	16cc 16cccLK	.
.	8b- 8bb-	.
8GG 8GJ	.	.
.	[16f [16b- [16dd [16ffJk	.
=54	=54	=54
8BB- 8B-L	16f] 16b-] 16dd] 16ffLL]	.
.	16dd	.
8AA- 8A-J	16ff	.
.	16fJJ	.
8GG 8GL	16b-LL	.
.	16dd	.
8FF 8FJ	16ff	.
.	16aa-JJ	.
=55	=55	=55
8EE- 8E-L	16r	.
.	16ee- 16ggLL	.
8G 8B- 8e-J	16b- 16bb-	.
.	16ee- 16ggJJ	.
8EE- 8E-L	16cc 16cccLK	.
.	8b- 8bb-	.
8CC# 8C#J	.	.
.	[16f [16b- [16dd 16ffJk	.
=56	=56	=56
8DD 8DL	16f] 16b-] 16dd] 16ggLL	.
.	16b- 16dd	.
8AAA- 8AA-J	16f 16b- 16dd 16ff	.
.	[16g [16bn 16dd [16ggJJ	.
8GGG 8GGL	16g] 16b] 16dd 16ggLL]	.
.	16dd	.
8G 8Bn 8d 8fJ	16bn	.
.	16gJJ	.
=57	=57	=57
*	*^	*
8C 8G 8B-L	16ccLL	8en	.
.	16gJ	.	.
8G 8c 8enJ	8b-J	8r	.
8F 8c 8e-L	16aLL	4r	.
.	16ff	.	.
8F 8A 8e-J	16ee-	.	.
.	16ccJJ	.	.
*	*v	*v	*
=58	=58	=58
*>D1	*>D1	*>D1
*^	*	*
4d	8B-L	4b-	.
.	16FF 16FL	.	.
.	16GG 16GJJ	.	.
4ryy	16AA 16ALL	4r	.
.	16BB- 16B-	.	.
.	16C 16c	.	.
.	16C# 16c#JJ	.	.
*v	*v	*	*
=59	=59	=59
*>D2	*>D2	*>D2
*^	*	*
8B-L	4d	4b-	.
8FF 8FJ	.	.	.
4ryy	8BBB- 8BB-	8b- 8dd 8bb-	.
.	8r	8r	.
*v	*v	*	*
=60!|:	=60!|:	=60!|:
*>E	*>E	*>E
*k[b-e-a-]	*k[b-e-a-]	*k[b-e-a-]
8E-L	16g 16b-LK	p
.	8g 8b-	.
8G 8B- 8e-J	.	.
.	16f 16a-Jk	.
*	*^	*
8BB-L	16gLL	8e-L	.
.	16f#	.	.
8G 8B-J	16g	16e-L	.
.	16b-JJ	16gJJ	.
*	*v	*v	*
=61	=61	=61
8E-L	8g 8ee-L	.
8G 8B- 8e-J	16ee- 16gg 16bb-L	.
.	[16ee- [16ggJJ	.
8BB-L	16ee-] 16ggLL]	.
.	16ee- 16gg 16cccJ	.
8G 8B- 8e-J	8ee- 8gg 8bb-J	.
=62	=62	=62
8E-L	16g 16b-LK	.
.	8g 8b-	.
8G 8B- 8e-J	.	.
.	16f (16a-Jk	.
*	*^	*
8BB-L	16gLL	8e-L	.
.	16f#	.	.
8G 8B-J	16g	16e-L	.
.	16b-JJ	16gJJ	.
*	*v	*v	*
=63	=63	=63
8E-L	8g 8ee-L)	.
8G 8B- 8e-J	16ee- 16gg 16bb-L	.
.	[16ee- [16ggJJ	.
8EE- 8E-L	16ee-] 16ggLL]	.
.	16ee- 16gg 16cccJ	.
8EEn 8EnJ	8cc# 8gg 8bb-J	.
=64	=64	=64
8FF 8FL	16dd 16aa-LK	.
.	8dd 8aa-	.
8A- 8B- 8dJ	.	.
.	16dd (16ggJk	.
*	*^	*
8BBB- 8BB-L	16ffLL	4dd	.
.	16een	.	.
8A- 8B- 8dJ	16ff	.	.
.	16ff#JJ	.	.
*	*v	*v	*
=65	=65	=65
8EE- 8E-L	16g 16ee- 16ggLL)	.
.	16a- 16aa-	.
8G 8B- 8e-J	16b- 16bb-	.
.	[16cc [16cccJJ	.
8GG 8GL	16cc] 16cccLL]	.
.	16dd 16dddJ	.
8GG- 8G-J	8ee- 8eee-J	.
=66	=66	=66
8FF 8FL	16dd 16dddLL	.
.	16ee- 16eee-	.
8F 8B-J	16een 16eeen	.
.	[16ff [16fffJJ	.
8FF 8FL	16ff] 16fffLL]	.
.	16ffJ	.
8F 8AnJ	8ee- 8cccJ	.
=67	=67	=67
8BB- 8B-L	[4dd [4bb-	.
8F	.	.
8D	8dd] 8bb-]	.
8BB-J	8a- 8b-	.
=68	=68	=68
8E-L	16g 16b-LK	f
.	8g 8b-	.
8G 8B- 8e-J	.	.
.	16f 16a-Jk	.
*	*^	*
8BB-L	16gLL	8e-L	.
.	16f#	.	.
8GJ	16g	16e-L	.
.	16b-JJ	16gJJ	.
*	*v	*v	*
=69	=69	=69
8E-L	8g 8ee-L	.
8G 8B- 8e-J	16ee- 16ggL	.
.	[16ee- [16ggJJ	.
8BB-L	16ee-] 16ggLL]	.
.	16ee- 16gg 16cccJ	.
8G 8B- 8e-J	8ee- 8gg 8bb-J	.
=70	=70	=70
8DL	16bn 16ggLK	.
.	8b 8gg	.
8G 8Bn 8fJ	.	.
.	16b 16ggJk	.
*	*^	*
8GGL	16aa-LL	4b	.
.	16gg	.	.
8G 8B 8fJ	16dd	.	.
.	16ffJJ	.	.
*	*v	*v	*
=71	=71	=71
8CL	16cc 16ee-LL	.
.	16ff	.
8G 8c 8e-J	16gg	.
.	[16cccJJ	.
8CL	16cccLL]	.
.	16ggJ	.
8G 8c 8e-J	8cccJ	.
=72	=72	=72
8FF 8FL	16r	.
.	16aa-LL	.
8A- 8c 8fJ	16gg	.
.	16ffJJ	.
8C 8cL	16aa-LK	.
.	8eee-	.
8C- 8c-J	.	.
.	16aa-Jk	.
=73	=73	=73
8BB- 8B-L	16ggLL	.
.	16ee-J	.
8G 8B- 8e-J	8ggJ	.
4AAn 4An	4cc 4ee- 4ff#	.
=74	=74	=74
8BB- 8B-L	16b- 16ee- 16ggLL	.
.	16b-	.
8G 8B- 8e-J	16gg	.
.	16ffJJ	.
8C 8cL	8an 8ee-L	.
8BB- 8B-J	8a- 8dd 8ffJ	.
=75	=75	=75
*>E1	*>E1	*>E1
8E- 8e-	8g 8ee-	.
*^	*	*
8ryy	8r	16b-LL	.
.	.	16b-JJ	.
4A- 4B- 4d	8FL	8b-L	.
.	8BB-J	8b-J	.
*v	*v	*	*
=76:|!	=76:|!	=76:|!
*>E2	*>E2	*>E2
8E- 8e-L	4g 4ee-	.
8BB- 8B-J	.	.
8EE- 8E-	8ee- 8gg 8eee-	.
8r	8r	.
==	==	==
*-	*-	*-
!!!ENC: Craig Stuart Sapp
!!!END: 2005/02/04
!!!EEV: 2018/06/01
